!!!SOCIAL_FUNCTION:	miscellaneous songs
!!!PDT:	1943
!!!OTL: No_85_Song_to_a_Spirit_in_the_Fire.krn
!!!REG: British Columbia
**kern
*staff1
=1-
*clefG2
*k[f#c#g#d#]
*M2/4
4r
4B/
=2
4B/
8c#/L
8c#/J
=3
4.f#/
8g#/
=4
4.e/
8g#/
=5
4.f#/
8g#/
=6||
*M3/4
8e/L
8e/J
4e/
4c#/
=7||
*M2/4
4B/
4r
=8
4B/
4c#/
=9||
*M3/4
4e/
4B/
8.e/L
16B/Jk
=10||
*M2/4
2c#/
=11
4B/
4r
=12
4c#/
8.e/L
16c#/Jk
=13
8.c#/L
[16B/Jk
4B/]
=14
4G#/
4G#/
=15||
*M3/4
4G#/
4G#/
4G#/
=16
4c#/
4B/
8.G#/L
16B/Jk
=17||
*M2/4
2B/
=18
4B/
4r
=19
4c#/
8.e/L
16c#/Jk
=20
16c#/LK
[8.B/J
4B/]
=21
4G#/
4G#/
=22
4G#/
8G#/
8r
=23||
*M3/4
4G#/
4G#/
4G#/
=24||
*M2/4
4G#/
4G#/
=25
4G#/
4r
=26
4c#/
8.e/L
16c#/Jk
=27||
*M3/4
16c#/LK
[8.B/J
4B/]
8.G#/L
16B/Jk
=28||
*M2/4
2B/
=29
4B/
4r
==
*-
